!! 00000] TT[WS
!!!OTL: Da suanzao
!!!ARE: Asia, China,ÿShanxi Ningwu
!! Ethnic Group: Han
!! WI, 55
!!!SCT: J0060
!!!YEM: Copyright 1995, estate of Helmut Schaffrath.
**kern
*ICvox
*Ivox
*M2/4
*k[b-]
*F:
{8dd
16dd
16cc
8a
8cc
=1
8dd
16dd
16cc
8a
8cc
=2
8dd
16dd
16cc
8a
8cc
=3
8.dd
16gg
8ff
8dd
=4
16cc
16dd
16cc
16g
4cc}
=5
{8dd
8gg
8ff
8dd
=6
16g
16a
4f
8a
=7
16g
16a
4.f
=8
8.a
16a
8dd
8cc
=9
4.a
8g
=10
8a
8a
16f
16g
16f
16d
=11
2c}
==
!!!AGN: Xiaodiao. Laodong
!!!ONB: ESAC (Essen Associative Code) Database: CHINA
!!!AMT: simple duple
!!!AIN: vox
!!!EED: Helmut Schaffrath
!!!EEV: 1.0
*-
